src/assets/img/Home/icons/savingsicon.svg

<svg width="34" height="34" viewBox="0 0 34 34" fill="none" xmlns="http://www.w3.org/2000/svg">
<g id="Icon">
<g id="Union">
<path d="M4.78125 4.25C3.31424 4.25 2.125 5.43924 2.125 6.90625V7.96875C2.125 9.43576 3.31424 10.625 4.78125 10.625H29.2188C30.6858 10.625 31.875 9.43576 31.875 7.96875V6.90625C31.875 5.43924 30.6858 4.25 29.2188 4.25H4.78125Z" fill="#CAFF33"/>
<path fill-rule="evenodd" clip-rule="evenodd" d="M4.37296 12.75L5.13764 25.7496C5.26978 27.996 7.13003 29.75 9.3803 29.75H24.6193C26.8696 29.75 28.7298 27.996 28.8619 25.7496L29.6266 12.75H4.37296ZM17 14.875C17.5868 14.875 18.0625 15.3507 18.0625 15.9375V22.9349L20.4987 20.4987C20.9136 20.0838 21.5864 20.0838 22.0013 20.4987C22.4162 20.9136 22.4162 21.5864 22.0013 22.0013L17.7513 26.2513C17.3364 26.6662 16.6636 26.6662 16.2487 26.2513L11.9987 22.0013C11.5838 21.5864 11.5838 20.9136 11.9987 20.4987C12.4136 20.0838 13.0864 20.0838 13.5013 20.4987L15.9375 22.9349V15.9375C15.9375 15.3507 16.4132 14.875 17 14.875Z" fill="#CAFF33"/>
</g>
</g>
</svg>

<svg xmlns="http://www.w3.org/2000/svg" width="34" height="34" fill="none"><g fill="#CAFF33"><path d="M4.781 4.25a2.656 2.656 0 0 0-2.656 2.656V7.97a2.656 2.656 0 0 0 2.656 2.656H29.22a2.656 2.656 0 0 0 2.656-2.656V6.906a2.656 2.656 0 0 0-2.656-2.656H4.78Z"/><path fill-rule="evenodd" d="m4.373 12.75.765 13a4.25 4.25 0 0 0 4.242 4h15.24a4.25 4.25 0 0 0 4.242-4l.765-13H4.373ZM17 14.875c.587 0 1.063.476 1.063 1.063v6.997l2.436-2.436A1.063 1.063 0 0 1 22 22l-4.25 4.25a1.063 1.063 0 0 1-1.502 0l-4.25-4.25A1.063 1.063 0 0 1 13.5 20.5l2.437 2.436v-6.997c0-.587.475-1.063 1.062-1.063Z" clip-rule="evenodd"/></g></svg>
